dist/flags/s/624.svg

<svg width="16" height="12" viewBox="0 0 16 12" fill="none" xmlns="http://www.w3.org/2000/svg">
<mask id="mask0" mask-type="alpha" maskUnits="userSpaceOnUse" x="0" y="0" width="16" height="12">
<rect width="16" height="12" fill="white"/>
</mask>
<g mask="url(#mask0)">
<path fill-rule="evenodd" clip-rule="evenodd" d="M8 0H16V6H8V0Z" fill="#FBCD17"/>
<path fill-rule="evenodd" clip-rule="evenodd" d="M8 6H16V12H8V6Z" fill="#0B9E7A"/>
<path fill-rule="evenodd" clip-rule="evenodd" d="M0 0H8V12H0V0Z" fill="#E11C1B"/>
<path fill-rule="evenodd" clip-rule="evenodd" d="M4.46533 7.30314L2.72251 8.51199L3.27941 6.44152L2 5.1189L3.73239 5.04739L4.46533 3L5.19827 5.04739H6.92771L5.65125 6.44152L6.29052 8.38979L4.46533 7.30314Z" fill="#1D1D1D"/>
</g>
</svg>

<svg width="16" height="12" fill="none" xmlns="http://www.w3.org/2000/svg">
  <mask id="a" maskUnits="userSpaceOnUse" x="0" y="0" width="16" height="12">
    <path fill="#fff" d="M0 0h16v12H0z"/>
  </mask>
  <g mask="url(#a)" fill-rule="evenodd" clip-rule="evenodd">
    <path d="M8 0h8v6H8V0z" fill="#FBCD17"/>
    <path d="M8 6h8v6H8V6z" fill="#0B9E7A"/>
    <path d="M0 0h8v12H0V0z" fill="#E11C1B"/>
    <path d="M4.465 7.303L2.723 8.512l.556-2.07L2 5.119l1.732-.072L4.465 3l.733 2.047h1.73L5.65 6.442l.64 1.948-1.826-1.087z" fill="#1D1D1D"/>
  </g>
</svg>
